X:402
T:Dans Les Caves
Z:Jack Campin, http://www.campin.me.uk/
F:Jack Campin's Nine-Note Tunebook
% last edit 03-02-2013
S:Cam-French Tune Book
M:3/8
L:1/16
Q:3/8=66
K:F
C2D2E2|F2G2A2|B2G2AB|c2G2E2|C2D2E2|F2G2A2|BAG2F2|G6:|
B3cB2 |A2G2F2|EFG2E2|F2G2A2|B3cB2 |A2G2F2|EFG2E2|F6:|

